dist/intermediate-svg/warehouse-fetch.svg

<?xml version="1.0" encoding="utf-8"?><svg width="12" height="15" fill="none" xmlns="http://www.w3.org/2000/svg" viewBox="0 0 12 15"><g filter="url(#fwfilter0_fetch)"><path d="M2.8 4.91252L5.60001 1.01249C5.80001 0.712495 6.19999 0.712495 6.39999 1.01249L9.2 4.91252C9.45 5.26252 9.2 5.71251 8.8 5.71251H7.5V8.71251C7.5 9.01251 7.3 9.21251 7 9.21251H5C4.7 9.21251 4.5 9.01251 4.5 8.71251V5.71251H3.2C2.8 5.71251 2.6 5.26252 2.8 4.91252ZM11.5 10.2125H0.5C0.2 10.2125 0 10.4125 0 10.7125V12.7125C0 13.0125 0.2 13.2125 0.5 13.2125H11.5C11.8 13.2125 12 13.0125 12 12.7125V10.7125C12 10.4125 11.8 10.2125 11.5 10.2125Z" fill="#1E6393"/></g><defs><filter id="fwfilter0_fetch" x="0" y=".787" width="12" height="13.425" filterUnits="userSpaceOnUse" color-interpolation-filters="sRGB"><feFlood flood-opacity="0" result="BackgroundImageFix"/><feColorMatrix in="SourceAlpha" values="0 0 0 0 0 0 0 0 0 0 0 0 0 0 0 0 0 0 127 0" result="hardAlpha"/><feOffset dy="1"/><feColorMatrix values="0 0 0 0 1 0 0 0 0 1 0 0 0 0 1 0 0 0 1 0"/><feBlend in2="BackgroundImageFix" result="effect1_dropShadow"/><feBlend in="SourceGraphic" in2="effect1_dropShadow" result="shape"/></filter></defs></svg>

<?xml version="1.0" encoding="utf-8"?><svg width="12" height="15" fill="none" xmlns="http://www.w3.org/2000/svg" viewBox="0 0 12 15"><g filter="url(#hbfilter0_fetch)"><path d="M2.8 4.913l2.8-3.9c.2-.3.6-.3.8 0l2.8 3.9a.5.5 0 01-.4.8H7.5v3c0 .3-.2.5-.5.5H5c-.3 0-.5-.2-.5-.5v-3H3.2c-.4 0-.6-.45-.4-.8zm8.7 5.3H.5c-.3 0-.5.2-.5.5v2c0 .3.2.5.5.5h11c.3 0 .5-.2.5-.5v-2c0-.3-.2-.5-.5-.5z" fill="#1E6393"/></g><defs><filter id="hbfilter0_fetch" x="0" y=".787" width="12" height="13.425" filterUnits="userSpaceOnUse" color-interpolation-filters="sRGB"><feFlood flood-opacity="0" result="BackgroundImageFix"/><feColorMatrix in="SourceAlpha" values="0 0 0 0 0 0 0 0 0 0 0 0 0 0 0 0 0 0 127 0" result="hardAlpha"/><feOffset dy="1"/><feColorMatrix values="0 0 0 0 1 0 0 0 0 1 0 0 0 0 1 0 0 0 1 0"/><feBlend in2="BackgroundImageFix" result="effect1_dropShadow"/><feBlend in="SourceGraphic" in2="effect1_dropShadow" result="shape"/></filter></defs></svg>
